X:1
T: Goodman Gigue
N:
C:by F.M. Veracini
S:tune is "Gigue"
A:
O:
R:
M:6/8
K:Em
I:speed 150
%W: A
% voice 1 (1 lines, 39 notes)
K:Em
M:6/8
L:1/16
b2 |b2 g2 e2 e4 e2 e6e2 d2 c2 B2 A2 G2 A2 F2 B2 G2 E2 E2 E4 b2 |b2 g2 e2 e4 e2 e6e2 d2 c2 B2 A2 G2 A2 F2 B2 E6E4 b2 |
%W:
% voice 1 (1 lines, 38 notes)
b2 g2 e2 e4 e2 e6e2 d2 c2 B2 A2 G2 A2 F2 B2 G2 E2 E2 E4 b2 |b2 g2 e2 e4 e2 e6e2 d2 c2 B2 A2 G2 A2 F2 B2 E6E4 B2 |
%W: B
% voice 1 (1 lines, 44 notes)
B2 e2 g2 e2 g2 b2 f2 b2 B2 B2 b2 f2 g2 c' b a g f2 a g f e ^d2 f e d ^c B2 b2 a2 |^g2 a2 b2 =f2 e2 d2 c2 e d c B A2 a2 g2
%W:
% voice 1 (1 lines, 44 notes)
f2 g2 a2 e2 d2 c2 B2 d c B A G4 d2 |e d c B A2 f e d c B2 g f e d c2 a g f e d2 b a g f g a b2 B2 ^d2 e6e4 ||
